static/img/kroki/75aad302c36d8c1310235d2c9bf0b4a9.svg

<?xml version="1.0" encoding="us-ascii" standalone="no"?><svg xmlns="http://www.w3.org/2000/svg" xmlns:xlink="http://www.w3.org/1999/xlink" contentStyleType="text/css" height="374px" preserveAspectRatio="none" style="width:510px;height:374px;" version="1.1" viewBox="0 0 510 374" width="510px" zoomAndPan="magnify"><defs/><g><!--class azure_network_application_gateway_firewall_rule_set--><g id="elem_azure_network_application_gateway_firewall_rule_set"><rect codeLine="23" fill="#3D176E" height="39.7891" id="azure_network_application_gateway_firewall_rule_set" rx="2.5" ry="2.5" style="stroke:#000D19;stroke-width:0.5;" width="496" x="7" y="328.58"/><ellipse cx="22" cy="348.4745" fill="#ADD1B2" rx="11" ry="11" style="stroke:#181818;stroke-width:1.0;"/><path d="M24.9688,354.1152 Q24.3906,354.412 23.75,354.5527 Q23.1094,354.7089 22.4063,354.7089 Q19.9063,354.7089 18.5781,353.0683 Q17.2656,351.412 17.2656,348.287 Q17.2656,345.162 18.5781,343.5058 Q19.9063,341.8495 22.4063,341.8495 Q23.1094,341.8495 23.75,342.0058 Q24.4063,342.162 24.9688,342.4589 L24.9688,345.1777 Q24.3438,344.5995 23.75,344.3339 Q23.1563,344.0527 22.5313,344.0527 Q21.1875,344.0527 20.5,345.1308 Q19.8125,346.1933 19.8125,348.287 Q19.8125,350.3808 20.5,351.4589 Q21.1875,352.5214 22.5313,352.5214 Q23.1563,352.5214 23.75,352.2558 Q24.3438,351.9745 24.9688,351.3964 L24.9688,354.1152 Z " fill="#000000"/><text fill="#D9B8FF" font-family="Helvetica" font-size="17" lengthAdjust="spacing" textLength="454" x="41" y="354.3598">azure_network_application_gateway_firewall_rule_set</text></g><!--class microsoft_resource--><g id="elem_microsoft_resource"><rect codeLine="26" fill="#3D176E" height="39.7891" id="microsoft_resource" rx="2.5" ry="2.5" style="stroke:#000D19;stroke-width:0.5;" width="200" x="39" y="167.79"/><ellipse cx="54" cy="187.6845" fill="#ADD1B2" rx="11" ry="11" style="stroke:#181818;stroke-width:1.0;"/><path d="M56.9688,193.3252 Q56.3906,193.622 55.75,193.7627 Q55.1094,193.9189 54.4063,193.9189 Q51.9063,193.9189 50.5781,192.2783 Q49.2656,190.622 49.2656,187.497 Q49.2656,184.372 50.5781,182.7158 Q51.9063,181.0595 54.4063,181.0595 Q55.1094,181.0595 55.75,181.2158 Q56.4063,181.372 56.9688,181.6689 L56.9688,184.3877 Q56.3438,183.8095 55.75,183.5439 Q55.1563,183.2627 54.5313,183.2627 Q53.1875,183.2627 52.5,184.3408 Q51.8125,185.4033 51.8125,187.497 Q51.8125,189.5908 52.5,190.6689 Q53.1875,191.7314 54.5313,191.7314 Q55.1563,191.7314 55.75,191.4658 Q56.3438,191.1845 56.9688,190.6064 L56.9688,193.3252 Z " fill="#000000"/><text fill="#D9B8FF" font-family="Helvetica" font-size="17" lengthAdjust="spacing" textLength="158" x="73" y="193.5698">microsoft_resource</text></g><!--class phantom_resource--><g id="elem_phantom_resource"><rect codeLine="29" fill="#3D176E" height="39.7891" id="phantom_resource" rx="2.5" ry="2.5" style="stroke:#000D19;stroke-width:0.5;" width="198" x="274" y="167.79"/><ellipse cx="289" cy="187.6845" fill="#ADD1B2" rx="11" ry="11" style="stroke:#181818;stroke-width:1.0;"/><path d="M291.9688,193.3252 Q291.3906,193.622 290.75,193.7627 Q290.1094,193.9189 289.4063,193.9189 Q286.9063,193.9189 285.5781,192.2783 Q284.2656,190.622 284.2656,187.497 Q284.2656,184.372 285.5781,182.7158 Q286.9063,181.0595 289.4063,181.0595 Q290.1094,181.0595 290.75,181.2158 Q291.4063,181.372 291.9688,181.6689 L291.9688,184.3877 Q291.3438,183.8095 290.75,183.5439 Q290.1563,183.2627 289.5313,183.2627 Q288.1875,183.2627 287.5,184.3408 Q286.8125,185.4033 286.8125,187.497 Q286.8125,189.5908 287.5,190.6689 Q288.1875,191.7314 289.5313,191.7314 Q290.1563,191.7314 290.75,191.4658 Q291.3438,191.1845 291.9688,190.6064 L291.9688,193.3252 Z " fill="#000000"/><text fill="#D9B8FF" font-family="Helvetica" font-size="17" lengthAdjust="spacing" textLength="156" x="308" y="193.5698">phantom_resource</text></g><!--class resource--><g id="elem_resource"><rect codeLine="32" fill="#3D176E" height="39.7891" id="resource" rx="2.5" ry="2.5" style="stroke:#000D19;stroke-width:0.5;" width="113" x="198.5" y="7"/><ellipse cx="213.5" cy="26.8945" fill="#ADD1B2" rx="11" ry="11" style="stroke:#181818;stroke-width:1.0;"/><path d="M216.4688,32.5352 Q215.8906,32.832 215.25,32.9727 Q214.6094,33.1289 213.9063,33.1289 Q211.4063,33.1289 210.0781,31.4883 Q208.7656,29.832 208.7656,26.707 Q208.7656,23.582 210.0781,21.9258 Q211.4063,20.2695 213.9063,20.2695 Q214.6094,20.2695 215.25,20.4258 Q215.9063,20.582 216.4688,20.8789 L216.4688,23.5977 Q215.8438,23.0195 215.25,22.7539 Q214.6563,22.4727 214.0313,22.4727 Q212.6875,22.4727 212,23.5508 Q211.3125,24.6133 211.3125,26.707 Q211.3125,28.8008 212,29.8789 Q212.6875,30.9414 214.0313,30.9414 Q214.6563,30.9414 215.25,30.6758 Q215.8438,30.3945 216.4688,29.8164 L216.4688,32.5352 Z " fill="#000000"/><text fill="#D9B8FF" font-family="Helvetica" font-size="17" lengthAdjust="spacing" textLength="71" x="232.5" y="32.7798">resource</text></g><!--reverse link microsoft_resource to azure_network_application_gateway_firewall_rule_set--><g id="link_microsoft_resource_azure_network_application_gateway_firewall_rule_set"><path codeLine="35" d="M163.6093,222.3737 C185.9093,252.8937 218.63,297.69 240.96,328.25 " fill="none" id="microsoft_resource-backto-azure_network_application_gateway_firewall_rule_set" style="stroke:#FFAF37;stroke-width:2.0;"/><polygon fill="none" points="152.99,207.84,158.7648,225.9135,168.4539,218.834,152.99,207.84" style="stroke:#FFAF37;stroke-width:2.0;"/></g><!--reverse link phantom_resource to azure_network_application_gateway_firewall_rule_set--><g id="link_phantom_resource_azure_network_application_gateway_firewall_rule_set"><path codeLine="36" d="M348.0337,222.2876 C325.3537,252.8076 292,297.69 269.28,328.25 " fill="none" id="phantom_resource-backto-azure_network_application_gateway_firewall_rule_set" style="stroke:#FFAF37;stroke-width:2.0;"/><polygon fill="none" points="358.77,207.84,343.2179,218.7088,352.8496,225.8663,358.77,207.84" style="stroke:#FFAF37;stroke-width:2.0;"/></g><!--reverse link resource to microsoft_resource--><g id="link_resource_microsoft_resource"><path codeLine="37" d="M230.3907,61.5837 C208.0907,92.1037 175.37,136.9 153.04,167.46 " fill="none" id="resource-backto-microsoft_resource" style="stroke:#FFAF37;stroke-width:2.0;"/><polygon fill="none" points="241.01,47.05,225.5461,58.044,235.2352,65.1235,241.01,47.05" style="stroke:#FFAF37;stroke-width:2.0;"/></g><!--reverse link resource to phantom_resource--><g id="link_resource_phantom_resource"><path codeLine="38" d="M279.9663,61.4976 C302.6463,92.0176 336,136.9 358.72,167.46 " fill="none" id="resource-backto-phantom_resource" style="stroke:#FFAF37;stroke-width:2.0;"/><polygon fill="none" points="269.23,47.05,275.1504,65.0763,284.7821,57.9188,269.23,47.05" style="stroke:#FFAF37;stroke-width:2.0;"/></g><!--SRC=[dP1FQm8n4CNl-oa2dWMjj2hqea9fBr9gxykucRXXiyaocUsYRRzxjTeIi_u1Ju5vlxptPd8jKM1PyLgKM2wHVE8BRIiWACM4o3KpPno9ZbAW1iDOV7AMhm9pA54ye_b0rXd4n7kkiyAYz-8kaAQG5IjojPLxUoQmVYkXvO2Q6V1-manwMJC6PUHuEL8g9cFJpa3sXm_OmXn9f0FIw_LaVnmZLwCkxlrFBFG6HJyysjmnjcgs8dwfYortH52ojUYVVhRZAqYfxKhS1xEtVIUoI4VpHGxIDJjQWV5XZ6SaTBokSDRQ2iSZgOOduPTpS9BjJYTWKnEc5hbnLAHGLMPRdhMpwGeO6rYdIjFsDIQbsc3gaSLdadmVlfSw8-UTufJGkveo3DKg1ykkFAaTpqxuF7vrkzrR-YMjsDkj8ejspPY8ivCV]--></g></svg>

<svg xmlns="http://www.w3.org/2000/svg" width="510" height="374" viewBox="0 0 510 374"><rect width="496" height="39.789" x="7" y="328.58" fill="#3D176E" rx="2.5" ry="2.5" style="stroke:#000d19;stroke-width:.5"/><circle cx="22" cy="348.474" r="11" fill="#ADD1B2" style="stroke:#181818;stroke-width:1"/><path d="M24.969 354.115q-.578.297-1.219.438-.64.156-1.344.156-2.5 0-3.828-1.64-1.312-1.657-1.312-4.782t1.312-4.781q1.328-1.656 3.828-1.656.703 0 1.344.156.656.156 1.219.453v2.719q-.625-.579-1.219-.844-.594-.281-1.219-.281-1.343 0-2.031 1.078-.687 1.062-.687 3.156t.687 3.172q.688 1.062 2.031 1.062.625 0 1.219-.265.594-.281 1.219-.86z"/><text x="41" y="354.36" fill="#D9B8FF" font-family="Helvetica" font-size="17" textLength="454">azure_network_application_gateway_firewall_rule_set</text><rect width="200" height="39.789" x="39" y="167.79" fill="#3D176E" rx="2.5" ry="2.5" style="stroke:#000d19;stroke-width:.5"/><circle cx="54" cy="187.685" r="11" fill="#ADD1B2" style="stroke:#181818;stroke-width:1"/><path d="M56.969 193.325q-.578.297-1.219.438-.64.156-1.344.156-2.5 0-3.828-1.64-1.312-1.657-1.312-4.782t1.312-4.781q1.328-1.656 3.828-1.656.703 0 1.344.156.656.156 1.219.453v2.719q-.625-.578-1.219-.844-.594-.281-1.219-.281-1.343 0-2.031 1.078-.687 1.062-.687 3.156t.687 3.172q.688 1.062 2.031 1.062.625 0 1.219-.265.594-.281 1.219-.86z"/><text x="73" y="193.57" fill="#D9B8FF" font-family="Helvetica" font-size="17" textLength="158">microsoft_resource</text><rect width="198" height="39.789" x="274" y="167.79" fill="#3D176E" rx="2.5" ry="2.5" style="stroke:#000d19;stroke-width:.5"/><circle cx="289" cy="187.685" r="11" fill="#ADD1B2" style="stroke:#181818;stroke-width:1"/><path d="M291.969 193.325q-.578.297-1.219.438-.64.156-1.344.156-2.5 0-3.828-1.64-1.312-1.657-1.312-4.782t1.312-4.781q1.328-1.656 3.828-1.656.703 0 1.344.156.656.156 1.219.453v2.719q-.625-.578-1.219-.844-.594-.281-1.219-.281-1.344 0-2.031 1.078-.687 1.062-.687 3.156t.687 3.172q.688 1.062 2.031 1.062.625 0 1.219-.265.594-.281 1.219-.86z"/><text x="308" y="193.57" fill="#D9B8FF" font-family="Helvetica" font-size="17" textLength="156">phantom_resource</text><rect width="113" height="39.789" x="198.5" y="7" fill="#3D176E" rx="2.5" ry="2.5" style="stroke:#000d19;stroke-width:.5"/><circle cx="213.5" cy="26.895" r="11" fill="#ADD1B2" style="stroke:#181818;stroke-width:1"/><path d="M216.469 32.535q-.578.297-1.219.438-.64.156-1.344.156-2.5 0-3.828-1.64-1.312-1.657-1.312-4.782t1.312-4.781q1.328-1.656 3.828-1.656.703 0 1.344.156.656.156 1.219.453v2.719q-.625-.578-1.219-.844-.594-.281-1.219-.281-1.344 0-2.031 1.078-.687 1.062-.687 3.156t.687 3.172q.688 1.062 2.031 1.062.625 0 1.219-.265.594-.281 1.219-.86z"/><text x="232.5" y="32.78" fill="#D9B8FF" font-family="Helvetica" font-size="17" textLength="71">resource</text><path fill="none" d="M163.61 222.374c22.3 30.52 55.02 75.316 77.35 105.876m-87.97-120.41 5.775 18.073 9.689-7.079zm195.044 14.448C325.354 252.808 292 297.69 269.28 328.25m89.49-120.41-15.552 10.869 9.632 7.157zM230.39 61.584c-22.3 30.52-55.02 75.316-77.35 105.876m87.97-120.41-15.464 10.994 9.69 7.08zm38.956 14.448C302.646 92.018 336 136.9 358.72 167.46M269.23 47.05l5.92 18.026 9.632-7.157z" style="stroke:#ffaf37;stroke-width:2"/></svg>
